X: 4
T: Marche de Qu\'eteux Pomerleau
T: Pomerleau's March
M: 4/4
L: 1/8
S: Roaring Jelly handout 1018-6-11
B: Portland Collection V.3 p.126
O: c
K: G
D2 |\
"G"G2A2 "D"F2D2 | "C"E2D^C "D"D2(3DEF | "G"G2A2 G2B2 | "C"GABG "D"D2(3DEF |
"G"G2A2 "D"F2D2 | "C"E2D^C "D"D2(3DEF | "G"G2A2 G2B2 | "G"G4 G2 :|
|: AB |\
"C"c4 "G(Em)"B4 | B2AG "D"FGAB | A2D2 "G"G2A2 | B2AG "D"A2B2 |
"C"c4 "G(Em)"B4 | B2AG "D"FGAB | A2D2 G2B2 |[1 "G"G4 G2 :|[2 "G"GABG "D"D2 |]
